X:1
T:Trusting in Jesus (Crosby)
T:Trusting in Jesus (Crosby)
T:John Robson Sweney
T:Frances Jane (Fanny) Crosby, 1885
T:Public Domain Courtesy of the Cyber Hymnal™
T:Public Domain Courtesy of the Cyber Hymnal™
C:John Robson Sweney
Z:Public Domain
Z:Courtesy of the Cyber Hymnal™
%%score ( 1 2 ) ( 3 4 )
L:1/8
Q:1/4=88
M:6/8
K:F
V:1 treble 
V:2 treble 
V:3 bass 
V:4 bass 
V:1
 [Fc][Fd][Fc] F[FB][FA] | [DG][CF][CE] [CF]3 | [EG][EG][EG] [FA][FA][Fc] | [F=B][Ge][Fd] [Ec]3 | %4
w: 1.~Trust- ing in Je- sus, my|Sav- ior di- vine,|I have the wit- ness that|still He is mine;|
w: 2.~Once I was far from my|Sav- ior and King,|Now He has taught me His|mer- cy to sing;|
w: 3.~Trust- ing in Je- sus, oh,|what should I fear?|No- thing can harm me when|He is so near!|
w: 4.~If while a stran- ger I|jour- ney be- low,|Filled with His full- ness such|rap- ture I know,|
 [Fc][Fd][Fc] F[FB][FA] | [FA][FG]F [Fd]3 | [Ff][Fe][Fd] [Fd]<[Fc][FA] | [Ec][EB][CE] [CF]3 || %8
w: Great are the bless- ings He|giv- eth to me:|Oh, I am hap- py as|mor- tal can be.|
w: Peace in be- liev- ing He|giv- eth to me:|Oh, I am hap- py as|mor- tal can be.|
w: Sweet is the prom- ise He|giv- eth to me:|Oh, I am hap- py as|mor- tal can be.|
w: What will the bliss of e-|ter- ni- ty be,|When in His beau- ty the|King I shall see?|
[M:9/8]"^Refrain" cdc | F3- [CF][CG][FA] [FA][CG][CF] | G3- [EG]3 [EG][FA][GB] | %11
w: |||
w: I am re-|deemed, and I know it full well,|* Saved by His grace,|
w: |||
w: |||
 [ce]4 [Bd][Ac] ([GB][FA])[EG] | [FA]6 cdc | F3- [CF][CG][FA] | [FA][FB][Fc] | %15
w: ||||
w: * I with Him * shall|dwell; I am re-|deemed, and the child|* of His|
w: ||||
w: ||||
 d3- [Fd]3 [df][ce][Bd] | [Ac]4 [Bd][Ac] [GB]2 [CE] | F3- [CF]3 |] %18
w: |||
w: love, Heir to a glor-|* i- ous crown a-|bove. *|
w: |||
w: |||
V:2
 x3 F x2 | x6 | x6 | x6 | x3 F x2 | x2 F x3 | x6 | x6 ||[M:9/8] x3 | C C C x6 | E2 E x6 | x9 | x9 | %13
 C C C x3 | x3 | F2 F x6 | x9 | C2 D x3 |] %18
V:3
 [F,A,][F,B,][F,A,] [F,A,][F,D][F,C] | [B,,B,][C,A,][C,G,] [F,A,]3 | %2
w: ~ ~ ~ ~ ~ ~|~ ~ ~ ~|
 [C,C][C,C][C,C] [F,C][F,C][F,A,] | [D,G,][G,C][G,,G,=B,] (C2 _B,) | %4
w: ~ ~ ~ ~ ~ ~|~ ~ ~ ~ *|
 [F,A,][F,B,][F,A,] [F,A,][F,D][F,C] | [F,_E][G,E][A,E] [B,D]3 | [B,D][B,C]B, [F,B,]<[F,A,][F,C] | %7
w: ~ ~ ~ ~ ~ ~|~ ~ ~ ~|~ ~ ~ ~ ~ ~|
 [C,C][C,C][C,B,] [F,A,]3 ||[M:9/8] z3 | ([F,A,][F,A,][F,A,] [F,A,])[F,B,][F,C] [F,C][F,B,][F,A,] | %10
w: ~ ~ ~ ~||~ * * * ~ ~ ~ ~ ~|
 ([C,C]2 [C,C] [C,C]3) z3 | [C,G,][C,G,][C,G,] [C,G,][C,G,][C,C] [C,C]2 [C,C] | %12
w: ~ * *|Saved by His grace ~ ~ ~ ~|
 [F,C]2 [F,C] [F,C]3 z3 | ([F,A,][F,A,][F,A,] [F,A,])[F,B,][F,C] | [F,_E][G,E][A,E] | %15
w: ~ shall dwell;|||
 ([B,D]2 [B,,B,] [B,,B,]3) z3 | ([C,F][C,F][C,F] [C,F])[C,F][C,F] [C,C]2 [C,B,] | %17
w: ||
 ([F,A,]2 [F,B,] [F,A,]3) |] %18
w: |
V:4
 x6 | x6 | x6 | x3 C,3 | x6 | x6 | x2 B, x3 | x6 ||[M:9/8] x3 | x9 | x9 | x9 | x9 | x6 | x3 | x9 | %16
 x9 | x6 |] %18

